X:227
T:Earl of Home
R:Strathspey
C:Nathaniel Gow
B:The Athole Collection
M:C
L:1/8
K:F
f|c<F c>A d<G B>d|c<F c>A d>Bc>A|B<dA<c G>A B<d|c<F c>A c<FA:|
c|~f>g a<f e>f g<a|~f>ga>f g>ef>d|c<A f>A G>A B<d|c<F c>A c<F A>c|
f/e/f/g/ a>f e>fg>a|f>ga>f g>ef>d|c<A f>A G>AB>d|c<A cd/e/ fcd<f||

